X: 2
M: C
L: 1/8
K: Bm
[V:1] F | (B>^A) (B>c) (d>c)  (d>e) | f2 (dc) e2 (de) |
[V:2] F | (B>^A)  F2   (B>^A) (B>c) | d2 (cB) A2 A2 |
[V:1] {d}f2 A2 (dB) (BG/F/) | A4 z2 (d>c) |
[V:2]    d2 F2  G2  (FE)    | A4 z2 (d>c) |
[V:1] (B>^AB) c (d>cd)  e | (f>ef) g f2 (ba) |
[V:2] (B>cd)  c (B>^AB) c | (d>cd) e d2 (GF) |
[V:1] (gf) (ed) c3 B |  B6    :: (f>g) |
[V:2]  E2   E2  F3 F | [B6D6] :: (d>e) |
[V:1] (a>g) (ab) a2 (gf) | (gfe) d e2 (d>e) |
[V:2] (fd)  (fg) f2 (ed) | (edc) B A2  A2   |
[V:1] f2{ga} A2 (dc/B/) (AG/F/) | A4 z2 (dc) |
[V:2] D2     F2  G2     (FE/D/) | A4 z2 (dc) |
[V:1] (B>^AB) c (d>cd)  e | (f>ef) g f2 (ba) |
[V:2] (Bcd)   c (B>^AB) c | (d>cd) e d2 (GF) |
[V:1] (gf) (ed) c3 B |  B6    :|
[V:2]  E2   E2  F3 F | [B6D6] :|

